X:164
T:Swallow's Nest, The
R:reel
D:Sliabh Notes: Gleanntan
Z:transcribed by Dave Marshall
M:C|
K:G
|: G3A GEDB, | DEGA BedB | A~E3 ABcd | egfg edBA |
G3A GEDB, | DEGA B2ge | d~G3 dGBG | FADF G4 :|
|: e~g3 edBA | GEDF GABd | eaag aged | BABd ~g3e |
d~g3 agbg | aged e2ge | ~d3e dGBG | FADF G4 :|
